static/img/netlify-logo.svg

<svg xmlns="http://www.w3.org/2000/svg" width="100%" height="100%" viewBox="0 0 100 100" fill-rule="evenodd" stroke-linejoin="round" stroke-miterlimit="2"><path d="M28.59 14.135l-.014-.006c-.008-.003-.016-.006-.023-.013-.023-.025-.034-.06-.028-.093l.773-4.726 3.625 3.626-3.77 1.604c-.01.004-.022.006-.033.006h-.015c-.005-.003-.01-.007-.02-.017a1.72 1.72 0 0 0-.495-.381zm5.258-.288l3.876 3.876c.805.806 1.208 1.208 1.355 1.674.022.07.04.138.054.21l-9.263-3.923c-.052-.02-.095-.038-.095-.076s.044-.056.08-.07l.012-.005 3.98-1.684zm5.127 7.003c-.2.376-.6.766-1.25 1.427l-4.37 4.37-5.682-1.183c-.05-.008-.103-.017-.103-.062-.043-.47-.28-.904-.655-1.193-.023-.023-.017-.06-.01-.092l1.07-6.562c.006-.05.015-.108.06-.108a1.73 1.73 0 0 0 1.16-.665c.01-.01.015-.02.027-.027.032-.015.07 0 .103.014l9.65 4.082zm-6.626 6.802l-7.185 7.185 1.23-7.56.002-.01c.001-.01.003-.02.006-.03.01-.024.036-.034.06-.044l.012-.005a1.85 1.85 0 0 0 .695-.517c.024-.028.053-.055.1-.06.01-.002.02-.002.03 0l5.06 1.04zm-8.706 8.706l-.8.8-8.955-12.942c-.024-.033-.04-.052-.036-.074.001-.016.01-.03.022-.042l.01-.013.075-.123.02-.035.003-.003c.014-.024.027-.047.05-.06s.05-.006.073-.001l9.92 2.046c.028.004.054.016.076.033.013.013.016.027.02.043a1.76 1.76 0 0 0 1.028 1.175c.028.014.016.045.003.078-.006.014-.012.03-.015.045l-1.485 9.063zm-1.692 1.69c-.597.59-.95.904-1.347 1.03a2 2 0 0 1-1.206 0c-.466-.148-.87-.55-1.674-1.356L8.73 28.73l2.35-3.643a.15.15 0 0 1 .04-.047c.025-.018.06-.01.09 0 .54.163 1.118.133 1.638-.083.027-.01.054-.017.075.002a.17.17 0 0 1 .028.032l9 13.058zM7.863 27.863L5.8 25.8l4.074-1.738c.01-.005.022-.007.033-.007.034 0 .054.034.072.065l.13.184.013.016c.012.017.004.034-.008.05l-2.25 3.493zm-2.976-2.976l-2.6-2.6-1-1.043 7.936 1.646.03.005c.05.008.103.017.103.063s-.06.073-.11.092l-.023.01-4.337 1.837zM.83 19.892a1.99 1.99 0 0 1 .09-.495c.148-.466.55-.868 1.356-1.674l3.34-3.34 4.626 6.687c.027.036.057.076.026.106-.146.16-.292.337-.395.528-.01.025-.028.046-.05.062-.013.008-.027.005-.042.002H9.78L.83 19.892zm5.68-6.403l4.49-4.49 5.618 2.384c.03.012.057.024.07.054.008.018.004.04 0 .06-.144.658.053 1.346.523 1.828.03.03 0 .073-.026.1l-.014.02-4.56 7.063c-.012.02-.023.037-.043.05s-.058.008-.086.001c-.177-.046-.36-.07-.543-.074a2.99 2.99 0 0 0-.522.063h-.001c-.02.003-.038.007-.054-.005s-.033-.032-.045-.05L6.51 13.49zM11.91 8.09l5.814-5.814c.805-.805 1.208-1.208 1.674-1.355a2 2 0 0 1 1.206 0c.466.147.87.55 1.674 1.355l1.26 1.26-4.135 6.404c-.01.02-.024.035-.04.048-.025.017-.06.01-.1 0a2.1 2.1 0 0 0-1.92.37c-.027.028-.067.012-.1-.003L11.91 8.09zm12.506-3.676l3.818 3.818-.92 5.698v.015a.16.16 0 0 1-.008.038c-.01.02-.03.024-.05.03a1.84 1.84 0 0 0-.548.273c-.007.005-.014.01-.02.017-.01.012-.022.023-.04.025s-.03-.002-.043-.007l-5.83-2.477c-.037-.015-.08-.033-.08-.07-.034-.324-.14-.637-.3-.915-.028-.046-.06-.094-.035-.14l4.066-6.303zm-3.932 8.606l5.454 2.3c.03.014.063.027.076.058a.11.11 0 0 1 0 .057c-.016.08-.03.17-.03.263v.153c0 .038-.04.054-.075.07l-.01.004-12.147 5.173c-.017 0-.035 0-.052-.017-.03-.03 0-.072.027-.1l.014-.02 4.5-6.952c.026-.042.056-.09.104-.09l.045.007.283.027c.68 0 1.3-.33 1.7-.897.01-.015.02-.03.034-.04.027-.02.067-.01.098.004zm-6.246 9.185l12.28-5.237s.018 0 .035.017a1.66 1.66 0 0 0 .179.154l.027.017c.025.014.05.03.052.056 0 .01 0 .016-.002.025l-1.056 6.488c-.007.05-.014.107-.06.107a1.73 1.73 0 0 0-1.373.847l-.005.008c-.014.023-.027.045-.05.057s-.048.006-.07.001l-9.793-2.02c-.01-.002-.152-.52-.163-.52z" fill="url(#A)" fill-rule="nonzero" transform="matrix(2.24339 0 0 2.24339 5.6691 5.1311)"/><defs><radialGradient id="A" cx="0" cy="0" r="1" gradientUnits="userSpaceOnUse" gradientTransform="matrix(0,38.3431,-44.2199,0,-0.454945,19.4595)"><stop offset="0" stop-color="#20c6b7"/><stop offset="1" stop-color="#4d9abf"/></radialGradient></defs></svg>

<?xml version="1.0" encoding="UTF-8" standalone="no"?>
<!DOCTYPE svg PUBLIC "-//W3C//DTD SVG 1.1//EN" "http://www.w3.org/Graphics/SVG/1.1/DTD/svg11.dtd">
<svg width="100%" height="100%" viewBox="0 0 100 100" version="1.1" xmlns="http://www.w3.org/2000/svg" xmlns:xlink="http://www.w3.org/1999/xlink" xml:space="preserve" xmlns:serif="http://www.serif.com/" style="fill-rule:evenodd;clip-rule:evenodd;stroke-linejoin:round;stroke-miterlimit:2;">
    <g transform="matrix(0.5,0,0,0.5,50,50)">
        <g transform="matrix(1,0,0,1,-100,-100)">
            <g id="netlify" transform="matrix(4.48678,0,0,4.48678,11.3382,10.2622)">
                <path d="M28.589,14.135L28.575,14.129C28.567,14.126 28.559,14.123 28.552,14.116C28.529,14.091 28.518,14.057 28.524,14.023L29.297,9.297L32.922,12.923L29.152,14.527C29.142,14.531 29.13,14.533 29.119,14.533L29.104,14.533C29.099,14.53 29.094,14.526 29.084,14.516C28.944,14.36 28.776,14.231 28.589,14.135ZM33.847,13.847L37.723,17.723C38.528,18.529 38.931,18.931 39.078,19.397C39.1,19.466 39.118,19.535 39.132,19.606L29.869,15.683C29.864,15.681 29.859,15.679 29.854,15.677C29.817,15.662 29.774,15.645 29.774,15.607C29.774,15.569 29.818,15.551 29.855,15.536L29.867,15.531L33.847,13.847ZM38.974,20.85C38.774,21.226 38.384,21.616 37.724,22.277L33.354,26.646L27.702,25.469L27.672,25.463C27.622,25.455 27.569,25.446 27.569,25.401C27.526,24.93 27.288,24.497 26.914,24.208C26.891,24.185 26.897,24.149 26.904,24.116C26.904,24.111 26.904,24.106 26.906,24.102L27.969,17.576L27.973,17.554C27.979,17.504 27.988,17.446 28.033,17.446C28.493,17.389 28.911,17.149 29.193,16.781C29.202,16.771 29.208,16.76 29.22,16.754C29.252,16.739 29.29,16.754 29.323,16.768L38.973,20.85L38.974,20.85ZM32.348,27.652L25.163,34.837L26.393,27.277L26.395,27.267C26.396,27.257 26.398,27.247 26.401,27.238C26.411,27.214 26.437,27.204 26.462,27.194L26.474,27.189C26.743,27.074 26.982,26.897 27.169,26.672C27.193,26.644 27.222,26.617 27.259,26.612C27.269,26.61 27.278,26.61 27.288,26.612L32.348,27.652ZM23.642,36.358L22.832,37.168L13.877,24.226C13.874,24.221 13.87,24.217 13.867,24.212C13.853,24.193 13.838,24.174 13.841,24.152C13.842,24.136 13.852,24.122 13.863,24.11L13.873,24.097C13.9,24.057 13.923,24.017 13.948,23.974L13.968,23.939L13.971,23.936C13.985,23.912 13.998,23.889 14.022,23.876C14.043,23.866 14.072,23.87 14.095,23.875L24.016,25.921C24.044,25.925 24.07,25.937 24.092,25.954C24.105,25.967 24.108,25.981 24.111,25.997C24.251,26.527 24.632,26.963 25.139,27.172C25.167,27.186 25.155,27.217 25.142,27.25C25.136,27.264 25.13,27.28 25.127,27.295C25.002,28.055 23.93,34.593 23.642,36.358ZM21.95,38.049C21.353,38.64 21.001,38.953 20.603,39.079C20.211,39.203 19.789,39.203 19.397,39.079C18.931,38.931 18.528,38.529 17.723,37.723L8.73,28.73L11.079,25.087C11.09,25.069 11.101,25.053 11.119,25.04C11.144,25.022 11.18,25.03 11.21,25.04C11.749,25.203 12.328,25.173 12.848,24.957C12.875,24.947 12.902,24.94 12.923,24.959C12.934,24.969 12.943,24.979 12.951,24.991L21.95,38.05L21.95,38.049ZM7.863,27.863L5.8,25.8L9.874,24.062C9.884,24.057 9.896,24.055 9.907,24.055C9.941,24.055 9.961,24.089 9.979,24.12C10.02,24.183 10.063,24.244 10.109,24.304L10.122,24.32C10.134,24.337 10.126,24.354 10.114,24.37L7.864,27.863L7.863,27.863ZM4.887,24.887L2.277,22.277C1.833,21.833 1.511,21.511 1.287,21.234L9.223,22.88C9.233,22.882 9.243,22.884 9.253,22.885C9.302,22.893 9.356,22.902 9.356,22.948C9.356,22.998 9.297,23.021 9.247,23.04L9.224,23.05L4.887,24.887ZM0.831,19.892C0.84,19.724 0.87,19.558 0.921,19.397C1.069,18.931 1.471,18.529 2.277,17.723L5.617,14.383C7.155,16.615 8.697,18.844 10.243,21.07C10.27,21.106 10.3,21.146 10.269,21.176C10.123,21.337 9.977,21.513 9.874,21.704C9.863,21.729 9.846,21.75 9.824,21.766C9.811,21.774 9.797,21.771 9.782,21.768L9.78,21.768L0.831,19.891L0.831,19.892ZM6.511,13.489L11.002,8.998C11.424,9.183 12.96,9.832 14.334,10.412C15.374,10.852 16.322,11.252 16.62,11.382C16.65,11.394 16.677,11.406 16.69,11.436C16.698,11.454 16.694,11.477 16.69,11.496C16.546,12.154 16.743,12.842 17.213,13.324C17.243,13.354 17.213,13.397 17.187,13.434L17.173,13.455L12.613,20.518C12.601,20.538 12.59,20.555 12.57,20.568C12.546,20.583 12.512,20.576 12.484,20.569C12.307,20.523 12.124,20.498 11.941,20.495C11.777,20.495 11.599,20.525 11.419,20.558L11.418,20.558C11.398,20.561 11.38,20.565 11.364,20.553C11.346,20.539 11.331,20.521 11.319,20.502L6.511,13.489ZM11.909,8.091L17.723,2.277C18.528,1.472 18.931,1.069 19.397,0.922C19.789,0.798 20.211,0.798 20.603,0.922C21.069,1.069 21.472,1.472 22.277,2.277L23.537,3.537L19.402,9.941C19.392,9.96 19.378,9.976 19.361,9.989C19.336,10.006 19.301,9.999 19.271,9.989C18.61,9.788 17.89,9.927 17.351,10.359C17.324,10.387 17.284,10.371 17.25,10.356C16.71,10.121 12.51,8.346 11.909,8.091ZM24.415,4.415L28.233,8.233L27.313,13.931L27.313,13.946C27.312,13.959 27.309,13.972 27.305,13.984C27.295,14.004 27.275,14.008 27.255,14.014C27.058,14.074 26.873,14.166 26.707,14.287C26.7,14.292 26.693,14.298 26.687,14.304C26.676,14.316 26.665,14.327 26.647,14.329C26.632,14.329 26.618,14.327 26.604,14.322L20.786,11.85L20.775,11.845C20.738,11.83 20.694,11.812 20.694,11.774C20.66,11.45 20.554,11.137 20.384,10.859C20.356,10.813 20.325,10.765 20.349,10.718L24.415,4.415ZM20.483,13.021L25.937,15.331C25.967,15.345 26,15.358 26.013,15.389C26.018,15.408 26.018,15.427 26.013,15.446C25.997,15.526 25.983,15.617 25.983,15.709L25.983,15.862C25.983,15.9 25.944,15.916 25.908,15.931L25.897,15.935C25.033,16.304 13.767,21.108 13.75,21.108C13.733,21.108 13.715,21.108 13.698,21.091C13.668,21.061 13.698,21.019 13.725,20.981C13.73,20.974 13.734,20.968 13.739,20.961L18.221,14.021L18.229,14.009C18.255,13.967 18.285,13.92 18.333,13.92L18.378,13.927C18.48,13.941 18.57,13.954 18.661,13.954C19.341,13.954 19.971,13.623 20.351,13.057C20.36,13.042 20.372,13.028 20.385,13.017C20.412,12.997 20.452,13.007 20.483,13.021ZM14.237,22.206L26.517,16.969C26.517,16.969 26.535,16.969 26.552,16.986C26.619,17.053 26.676,17.098 26.731,17.14L26.758,17.157C26.783,17.171 26.808,17.187 26.81,17.213C26.81,17.223 26.81,17.229 26.808,17.238L25.756,23.7L25.752,23.726C25.745,23.776 25.738,23.833 25.691,23.833C25.122,23.871 24.608,24.189 24.318,24.68L24.313,24.688C24.299,24.711 24.286,24.733 24.263,24.745C24.242,24.755 24.215,24.751 24.193,24.746L14.4,22.726C14.39,22.724 14.248,22.207 14.237,22.206Z" style="fill:url(#_Radial1);fill-rule:nonzero;"/>
            </g>
        </g>
    </g>
    <defs>
        <radialGradient id="_Radial1" cx="0" cy="0" r="1" gradientUnits="userSpaceOnUse" gradientTransform="matrix(0,38.3431,-44.2199,0,-0.454945,19.4595)"><stop offset="0" style="stop-color:rgb(32,198,183);stop-opacity:1"/><stop offset="1" style="stop-color:rgb(77,154,191);stop-opacity:1"/></radialGradient>
    </defs>
</svg>
